X:75
T:Cuckooâ€™s Nest
N:From Bill Northcutt â€œOld Time Hoedownâ€, Stoneway STY 103
N:Transcribed by Bruce Thomson
M:4/4
L:1/8
K:D
z6Ac|:â€Dâ€d2dc dfed|â€Aâ€c2A2A3B|â€Câ€=c2cB cedc|â€Gâ€B2G2G2FG|â€Dâ€AFDF Adfa|
fdBAâ€Gâ€G2FG|â€Dâ€AFEC â€œAâ€A,CEG|[1â€³ Dâ€F2D2D2(3ABc:|[2â€ Dâ€F2D2D2FG|]
|:â€Dâ€AFDF AFDF|AGFED2EF|â€Câ€GE=CE GECE|GFED =C2FE|
â€œDâ€DA,DF Adfa|fdBAâ€Gâ€G2FG|â€Dâ€AFEC â€œAâ€A,CEG|â€Dâ€F2D2D4:|

